X:1
T:The Old Knife Grinders Spring Song  "To be played at app. 70 bpm"
M:3/4
L:1/8
Q:80
C:Kai Normann Andersen
S:Slow Air
K:HP
{g}A/2{Gdc}d3/2e/2|
{g}f2{ag}a3/2f/2{gef}e3/2d/2|
{g}B2{Gdc}d3/2B/2{Gdc}d3/2e/2|  !
{g}A2{GAG}A3/2B/2{gcd}c3/2{e}A/2|
{Gdc}d2-d3/2{g}A/2{Gdc}d3/2e/2|
{g}f2{ag}a3/2f/2{gef}e3/2d/2|  !
{g}B2{Gdc}d3/2B/2{Gdc}d3/2e/2|
{g}A2{GAG}A3/2B/2{gcd}c3/2{e}A/2|
{Gdc}d2-d3/2f/2{gf}g3/2{a}f/2|  !
a2{g}a3/2f/2{gef}e3/2d/2|
{g}e2{A}e3/2f/2{gf}g3/2{a}f/2|
a2{g}a3/2f/2{gef}e3/2d/2|  !
{g}B2-B3/2{g}A/2{Gdc}d3/2e/2|
{g}f2{ag}a3/2f/2{gef}e3/2d/2|
{g}B2{Gdc}d3/2B/2{Gdc}d3/2e/2|  !
{g}A2{GAG}A3/2B/2{gcd}c3/2{e}A/2|
{Gdc}d2-d3/2

